svgs/thin/mace.svg

<svg xmlns="http://www.w3.org/2000/svg" viewBox="0 0 512 512"><!--! Font Awesome Pro 6.0.0-alpha3 by @fontawesome - https://fontawesome.com License - https://fontawesome.com/license (Commercial License) --><path d="M288 184c-22.06 0-40 17.94-40 40S265.9 264 288 264s40-17.94 40-40S310.1 184 288 184zM288 248c-13.23 0-24-10.77-24-24S274.8 200 288 200s24 10.77 24 24S301.2 248 288 248zM504 216h-80.81C419.1 147.5 364.5 92.89 296 88.81V8C296 3.578 292.4 0 288 0s-8 3.578-8 8v80.81C211.5 92.89 156.9 147.5 152.8 216H72c-4.422 0-8 3.575-8 7.997s3.578 8.004 8 8.004h80.81c1.182 19.85 6.611 38.4 15.44 55.08l-156.5 156.5C4.156 451.2 0 461.2 0 471.1s4.156 20.81 11.7 28.34C19.5 508.1 29.73 512 39.98 512c10.23 0 20.48-3.906 28.28-11.7l156.5-156.6C241.5 352.6 260.1 358 280 359.2v80.81c0 4.422 3.578 7.993 8 7.993s8-3.571 8-7.993v-80.81c68.5-4.074 123.1-58.69 127.2-127.2H504c4.422 0 8-3.582 8-8.004S508.4 216 504 216zM56.95 488.1c-9.344 9.344-24.59 9.344-33.94 0C18.48 484.5 16 478.4 16 471.1c0-6.453 2.484-12.5 7.016-17.03l153.5-153.4c9.223 13.23 20.72 24.72 33.94 33.95L56.95 488.1zM288 344c-66.17 0-120-53.83-120-120S221.8 104 288 104s120 53.83 120 120S354.2 344 288 344z"/></svg>

<svg xmlns="http://www.w3.org/2000/svg" viewBox="0 0 512 512"><!-- Font Awesome Pro 6.0.0-alpha2 by @fontawesome - https://fontawesome.com License - https://fontawesome.com/license (Commercial License) --><path d="M288 184.006C265.938 184.006 248 201.944 248 224.007S265.938 264.008 288 264.008S328 246.07 328 224.007S310.062 184.006 288 184.006ZM288 248.008C274.766 248.008 264 237.242 264 224.007S274.766 200.006 288 200.006S312 210.772 312 224.007S301.234 248.008 288 248.008ZM504 216.007H423.191C419.117 147.505 364.502 92.886 296 88.811V8C296 3.578 292.422 0 288 0S280 3.578 280 8V88.811C211.498 92.886 156.883 147.505 152.809 216.007H72C67.578 216.007 64 219.585 64 224.007S67.578 232.007 72 232.007H152.809C153.99 251.859 159.42 270.411 168.246 287.087L11.703 443.607C4.156 451.154 0 461.217 0 471.952S4.156 492.765 11.703 500.297C19.5 508.094 29.734 512 39.984 512C50.219 512 60.469 508.094 68.266 500.297L224.789 343.69C241.5 352.562 260.094 358.019 280 359.202V440.013C280 444.435 283.578 448.014 288 448.014S296 444.435 296 440.013V359.202C364.502 355.128 419.117 300.509 423.191 232.007H504C508.422 232.007 512 228.429 512 224.007S508.422 216.007 504 216.007ZM56.953 488.984C47.609 498.328 32.359 498.328 23.016 488.984C18.484 484.468 16 478.421 16 471.952C16 465.499 18.484 459.452 23.016 454.92L176.484 301.478C185.707 314.705 197.201 326.197 210.424 335.432L56.953 488.984ZM288 344.01C221.828 344.01 168 290.181 168 224.007S221.828 104.003 288 104.003S408 157.833 408 224.007S354.172 344.01 288 344.01Z"/></svg>
